material/.icons/material/debug-step-out.svg

<svg xmlns="http://www.w3.org/2000/svg" viewBox="0 0 24 24"><path d="M12 22a2 2 0 01-2-2 2 2 0 012-2 2 2 0 012 2 2 2 0 01-2 2m1-6h-2V6l-4.5 4.5-1.42-1.42L12 2.16l6.92 6.92-1.42 1.42L13 6v10z"/></svg>

<?xml version="1.0" encoding="UTF-8"?><!DOCTYPE svg PUBLIC "-//W3C//DTD SVG 1.1//EN" "http://www.w3.org/Graphics/SVG/1.1/DTD/svg11.dtd"><svg xmlns="http://www.w3.org/2000/svg" xmlns:xlink="http://www.w3.org/1999/xlink" version="1.1" id="mdi-debug-step-out" width="24" height="24" viewBox="0 0 24 24"><path d="M12,22A2,2 0 0,1 10,20A2,2 0 0,1 12,18A2,2 0 0,1 14,20A2,2 0 0,1 12,22M13,16H11V6L6.5,10.5L5.08,9.08L12,2.16L18.92,9.08L17.5,10.5L13,6V16Z" /></svg>
